T: Trettondedagsmarschen
M: 4/4
L: 1/8
K: Amaj
Ac|e2a2 abag | a2f2 f2ed | f2ed f2dc | B6 c2 |
d4 {edc}d2B2 | G2E2 D2C2 | B,2E2 GABG | AGAB cBcd |
e2a2 abag | a2f2 f2ed | f2ed f2dc | B6 c2 |
d4 {edc}d2B2 | G2E2 D2C2 | B,2E2 GABG | A6 c2 |
|:Acec acec | Acec acec |Bege bege | Bege bege |
Acec acec | Acec acec | B2cd EGBG | A6 c2:|
